Yaru++/status/symbolic/phonelink-off-symbolic.svg

<svg viewBox="0 0 16 16" xmlns="http://www.w3.org/2000/svg"><g fill="#808080"><path d="m2 5c0-1.7059237.3619401-2 2-2h11v-1l-11.9986955-.0013c-1.0013045-.0001085-2.0013045 1.0013-2.0013045 2.0013045v8.9999955h-1v1h9v-1h-7z"/><path d="m614.3983 306.64926c-.25774 0-.46794.032-.64674.115-.17243.0806-.31305.22137-.39804.3985-.16168.34-.14409.7365-.14409 1.2365v4.5c0 .5-.0176.898.14409 1.2375.0809.17.21971.314.39851.3975.17833.083.38853.115.64627.115h2.37774c.25775 0 .46794-.032.64675-.115.17833-.0835.31766-.228.39803-.3975.16169-.34.14409-.7375.14409-1.2375v-4.5c0-.5.0176-.897-.14409-1.2365-.0852-.17703-.22599-.31764-.39851-.398-.17833-.0835-.38852-.1155-.64627-.1155zm-.20861 1h2.82405v5.5702l-2.80805.0146z" opacity=".5" transform="translate(-602.01374 -300.64926)"/><path d="m138.92273 320.5349-1.061 1.061 14 14 1.062-1.062z" transform="translate(-137.528322 -320.081008)"/></g></svg>

<?xml version="1.0" encoding="UTF-8" standalone="no"?>
<svg
   xmlns:osb="http://www.openswatchbook.org/uri/2009/osb"
   xmlns:dc="http://purl.org/dc/elements/1.1/"
   xmlns:cc="http://creativecommons.org/ns#"
   xmlns:rdf="http://www.w3.org/1999/02/22-rdf-syntax-ns#"
   xmlns:svg="http://www.w3.org/2000/svg"
   xmlns="http://www.w3.org/2000/svg"
   xmlns:sodipodi="http://sodipodi.sourceforge.net/DTD/sodipodi-0.dtd"
   xmlns:inkscape="http://www.inkscape.org/namespaces/inkscape"
   version="1.1"
   viewBox="0 0 16 16"
   id="svg8"
   sodipodi:docname="phonelink-symbolic.svg"
   inkscape:version="0.92.4 (5da689c313, 2019-01-14)">
  <metadata
     id="metadata14">
    <rdf:RDF>
      <cc:Work
         rdf:about="">
        <dc:format>image/svg+xml</dc:format>
        <dc:type
           rdf:resource="http://purl.org/dc/dcmitype/StillImage" />
        <dc:title></dc:title>
      </cc:Work>
    </rdf:RDF>
  </metadata>
  <defs
     id="defs12">
    <linearGradient
       id="linearGradient7212"
       osb:paint="solid">
      <stop
         id="stop7214"
         offset="0"
         style="stop-color:#000000;stop-opacity:1;" />
    </linearGradient>
  </defs>
  <sodipodi:namedview
     pagecolor="#ffffff"
     bordercolor="#808080"
     borderopacity="1"
     objecttolerance="10"
     gridtolerance="10"
     guidetolerance="10"
     inkscape:pageopacity="0"
     inkscape:pageshadow="2"
     inkscape:window-width="1920"
     inkscape:window-height="1016"
     id="namedview10"
     showgrid="false"
     inkscape:zoom="14.75"
     inkscape:cx="-4.8813559"
     inkscape:cy="8"
     inkscape:window-x="0"
     inkscape:window-y="27"
     inkscape:window-maximized="1"
     inkscape:current-layer="svg8" />
  <path
     d="M 2,5 C 2,3.2940763 2.3619401,3 4,3 H 15 V 2 L 3.0013045,1.9987 C 2,1.9985915 1,3 1,4.0000045 V 13 H 0 v 1 H 9 V 13 H 2 Z"
     style="fill:#808080"
     id="path2" />
  <g
     transform="translate(-602.01374,-300.64926)"
     id="g6"
     style="fill:#808080;fill-opacity:1;opacity:0.5">
    <path
       d="m 614.3983,306.64926 c -0.25774,0 -0.46794,0.032 -0.64674,0.115 -0.17243,0.0806 -0.31305,0.22137 -0.39804,0.3985 -0.16168,0.34 -0.14409,0.7365 -0.14409,1.2365 v 4.5 c 0,0.5 -0.0176,0.898 0.14409,1.2375 0.0809,0.17 0.21971,0.314 0.39851,0.3975 0.17833,0.083 0.38853,0.115 0.64627,0.115 h 2.37774 c 0.25775,0 0.46794,-0.032 0.64675,-0.115 0.17833,-0.0835 0.31766,-0.228 0.39803,-0.3975 0.16169,-0.34 0.14409,-0.7375 0.14409,-1.2375 v -4.5 c 0,-0.5 0.0176,-0.897 -0.14409,-1.2365 -0.0852,-0.17703 -0.22599,-0.31764 -0.39851,-0.398 -0.17833,-0.0835 -0.38852,-0.1155 -0.64627,-0.1155 z m -0.20861,1 h 2.82405 v 5.5702 l -2.80805,0.0146 z"
       font-weight="400"
       overflow="visible"
       style="fill:#808080;fill-opacity:1"
       id="path4" />
  </g>
  <g
     id="g856"
     transform="translate(-17.527922,-2.0810085)">
    <g
       id="layer1"
       style="display:inline"
       transform="translate(-120.0004,-318)" />
    <g
       id="layer9"
       style="display:inline"
       transform="translate(-361.0006,49)" />
    <g
       id="g7628"
       style="display:inline"
       transform="translate(-361.0006,49)" />
    <g
       id="layer13"
       transform="translate(-120.0004,-518)" />
    <g
       id="layer11"
       style="display:inline"
       transform="translate(-120.0004,-318)" />
    <g
       id="layer14"
       transform="translate(-120.0004,-518)" />
    <g
       id="g6387"
       style="display:inline"
       transform="translate(-120.0004,-318)">
      <path
         style="fill:#808080;fill-opacity:1;stroke:none"
         id="path3849-0"
         d="m 138.92273,320.5349 -1.061,1.061 14,14 1.062,-1.062 z"
         inkscape:connector-curvature="0" />
    </g>
    <g
       id="layer18"
       transform="translate(-120.0004,-518)" />
    <g
       id="layer17"
       transform="translate(-120.0004,-518)" />
    <g
       id="layer16"
       transform="translate(-120.0004,-518)" />
    <g
       id="layer10"
       style="display:inline"
       transform="translate(-120.0004,-318)" />
    <g
       id="layer15"
       transform="translate(-120.0004,-518)" />
    <g
       id="layer12"
       transform="translate(-120.0004,-318)" />
  </g>
</svg>
